tests/fixtures/sample.xmp
<?xml version="1.0" encoding="UTF-8"?>
<x:xmpmeta xmlns:x="adobe:ns:meta/" x:xmptk="Adobe XMP Core 7.0-c000">
  <rdf:RDF xmlns:rdf="http://www.w3.org/1999/02/22-rdf-syntax-ns#">
    <rdf:Description
      xmlns:crs="http://ns.adobe.com/camera-raw-settings/1.0/"
      xmlns:xmp="http://ns.adobe.com/xap/1.0/"
      xmlns:dc="http://purl.org/dc/elements/1.1/"
      xmlns:photoshop="http://ns.adobe.com/photoshop/1.0/"
      crs:Temperature="5500"
      crs:Tint="10"
      crs:Exposure2012="1.5"
      crs:Contrast2012="20"
      crs:Highlights2012="-50"
      crs:Shadows2012="40"
      crs:Whites2012="15"
      crs:Blacks2012="-10"
      crs:Clarity2012="25"
      crs:Dehaze="20"
      crs:Vibrance="15"
      crs:Saturation="5"
      crs:ProcessVersion="ocps-1.0"
      xmp:Rating="5"
      xmp:Label="Red"
      dc:title="Test Photo"
      dc:creator="Test Photographer"
      dc:rights="Copyright 2026"
      photoshop:City="San Francisco"
      photoshop:Country="United States"
      />
  </rdf:RDF>
</x:xmpmeta>
